dist/svg/static/google-plus-small.svg

<svg xmlns="http://www.w3.org/2000/svg" width="24" height="24" viewBox="0 0 24 24"><path d="M17.414 9.678h1.534c.003.513.005 1.028.01 1.541.513.006 1.029.006 1.542.01v1.535c-.513.005-1.026.007-1.542.013-.005.515-.007 1.028-.01 1.541h-1.536c-.005-.513-.005-1.026-.01-1.539l-1.542-.015V11.23c.513-.005 1.026-.008 1.541-.01.003-.516.008-1.03.013-1.542zM3.514 11.73C3.561 8.948 6.118 6.512 8.9 6.605c1.333-.062 2.586.518 3.607 1.333-.436.495-.887.972-1.369 1.418-1.227-.848-2.972-1.09-4.2-.111-1.755 1.214-1.835 4.08-.146 5.388 1.642 1.49 4.746.75 5.2-1.532-1.03-.015-2.06 0-3.089-.033-.002-.614-.005-1.227-.002-1.84 1.719-.006 3.439-.008 5.16.004.104 1.444-.087 2.98-.974 4.174-1.343 1.89-4.04 2.441-6.143 1.632-2.111-.805-3.606-3.034-3.429-5.308z" fill="currentColor"/></svg>

<?xml version="1.0" encoding="UTF-8" standalone="no"?>
<svg width="24px" height="24px" viewBox="0 0 24 24" version="1.1" xmlns="http://www.w3.org/2000/svg" xmlns:xlink="http://www.w3.org/1999/xlink">
    <!-- Generator: sketchtool 46.2 (44496) - http://www.bohemiancoding.com/sketch -->
    <title>google-plus-small</title>
    <desc>Created with sketchtool.</desc>
    <defs></defs>
    <g id="icons-published" stroke="none" stroke-width="1" fill="none" fill-rule="evenodd">
        <g id="briefing" transform="translate(-356.000000, -794.000000)"></g>
        <g id="google-plus-small" fill-rule="nonzero" fill="#000000">
            <path d="M17.4,9.7 L18.9,9.7 C18.9,10.2 18.9,10.7 18.9,11.2 C19.4,11.2 19.9,11.2 20.4,11.2 L20.4,12.7 C19.9,12.7 19.4,12.7 18.9,12.7 C18.9,13.2 18.9,13.7 18.9,14.2 L17.4,14.2 C17.4,13.7 17.4,13.2 17.4,12.7 L15.9,12.7 L15.9,11.2 C16.4,11.2 16.9,11.2 17.4,11.2 C17.4,10.7 17.4,10.2 17.4,9.7 Z M3.5,11.7 C3.5,8.9 6.1,6.5 8.9,6.6 C10.2,6.5 11.5,7.1 12.5,7.9 C12.1,8.4 11.6,8.9 11.1,9.3 C9.9,8.5 8.1,8.2 6.9,9.2 C5.1,10.4 5.1,13.3 6.8,14.6 C8.4,16.1 11.5,15.4 12,13.1 C11,13.1 9.9,13.1 8.9,13.1 C8.9,12.5 8.9,11.9 8.9,11.3 C10.6,11.3 12.3,11.3 14.1,11.3 C14.2,12.7 14,14.3 13.1,15.5 C11.8,17.4 9.1,17.9 7,17.1 C4.8,16.2 3.3,14 3.5,11.7 L3.5,11.7 Z" id="Shape"></path>
        </g>
    </g>
</svg>
